!!!!SEGMENT: pl-kk--kk-i-3--053-002_anonim--sabbato-de-b-m-v-et-in-terra.krn
!!!cenid: 15xx:712
!!!COM: Anonim
!!!COM-rismID:
!!!CDT:
!!!CNT:
!!!OPR: Sabbato de B.M.V
!!!OTL: Et in terra
!!!OMV: 002
!!!PDT:
!!!AGN:
!!!SMS-siglum: PL-Kk
!!!SMS-shelfmark: Kk.I.3
!!!SMS-shelfwork: 053-002 M
!!!SMS-variant:
!!!SMS-altvar:
!!!NIFC-rismSourceID: 1001145551
!!!NIFC-islandoraID: pl-kk:1170
!!!URL-pdf-islandora: https://repozytorium.nifc.pl/islandora/object/pl-kk%3A1170/datastream/PDF/view
!!!URL-scan: https://polish.musicsources.pl/pl/lokalizacje/galeria/rekopisy/5919 @EN{Scan on Polish Music Herritage in Open Access Website} @PL{Skany w portalu Dziedzictwo Muzyki Polskiej w otwartym dostępie}
!!!ONB-nifc: UWAGA: Discantus (s. 148v-151r, skan 0151-0153), Tenor (s. 109v-111v, skan 0282-0284), Bassus (s. 142v-145r, skan 0446-0448)
!!!AIN: 1 bass 1 soprn 1 tenor
!!!key: G:mix
!!!finalis: G
**kern	**text	**kern	**text	**kern	**text
*part3	*part3	*part2	*part2	*part1	*part1
*staff3	*staff3	*staff2	*staff2	*staff1	*staff1
*ICvox	*	*ICvox	*	*ICvox	*
*Ibass	*	*Itenor	*	*Isoprn	*
*I"Bassus	*	*I"Tenor	*	*I"Discantus	*
*I'B	*	*I'T	*	*I'S	*
*clefF3	*	*clefC3	*	*clefC3	*
*k[]	*	*k[]	*	*k[]	*
*G:mix	*	*G:mix	*	*G:mix	*
*M2/1	*	*M2/1	*	*M2/1	*
*met(C|) 	*	*met(C|)	*	*met(C|)	*
=1-	=1-	=1-	=1-	=1-	=1-
1D	Et	1d	Et	1a	Et
2A\	in	1e	in	1a	in
1A\	.	.	.	.	.
=2-	=2-	=2-	=2-	=2-	=2-
*	*	*lig	*	*	*
.	.	1c	ter-	1a	ter-
2F\	ter-	.	.	.	.
1G	-ra	1B	.	1g	-ra
*	*	*Xlig	*	*	*
=3-	=3-	=3-	=3-	=3-	=3-
1A	pax	1c	.	1e	pax
2D/	.	1d	-ra	2f\	.
1G\	.	.	.	1d\	ho-
=4-	=4-	=4-	=4-	=4-	=4-
.	.	1G	pax	.	.
2E/	.	.	.	2g\	-mi-
*	*	*lig	*	*	*
1F	ho-	1A	ho-	2f\	.
.	.	.	.	2a\	.
=5-	=5-	=5-	=5-	=5-	=5-
1G	.	1B	.	1g	.
*	*	*Xlig	*	*	*
*	*	*lig	*	*	*
1C	mi-	1c	-mi-	1e	.
=6-	=6-	=6-	=6-	=6-	=6-
*lig	*	*	*	*	*
1G	.	1B	.	2d\	.
.	.	.	.	1g	.
*	*	*Xlig	*	*	*
*	*	*lig	*	*	*
1D	.	1A	-ni	.	.
!	!	!	!	!LO:SIC:v:s=2f\:t=?	!
.	.	.	.	2f\	.
*Xlig	*	*	*	*	*
=7-	=7-	=7-	=7-	=7-	=7-
2E/	-ni-	1G	.	2g\	.
2C/	-bus	.	.	2e\	-ni-
*	*	*Xlig	*	*	*
*	*	*custos:B	*	*	*
1G	bo-	1G	bus	1d	-bus
=8-	=8-	=8-	=8-	=8-	=8-
*lig	*	*lig	*	*	*
!	!	!LO:LB:g=original	!	!	!
1G	-nae	1B	bo-	2d\	bo-
*	*	*	*	*custos:e	*
.	.	.	.	1g	-nae
*custos:D	*	*	*	*	*
1C	.	1c	.	.	.
!	!	!	!	!LO:LB:g=original	!
.	.	.	.	1e\	vo-
*Xlig	*	*Xlig	*	*	*
=9-	=9-	=9-	=9-	=9-	=9-
!LO:LB:g=original	!	!	!	!	!
1D	.	1A	-nae	.	.
.	.	.	.	1d	.
1E	vo-	1G	vo-	.	.
!	!	!	!	!LO:SIC:v:s=2c#/:t=?	!
.	.	.	.	2c/	.
=10-	=10-	=10-	=10-	=10-	=10-
1D	.	1A	-lun	1d	-lun-
*	*	*lig	*	*	*
2D/	-lun-	1F	ta	2d\	-ta-
2F\	.	.	.	2A/	.
=11-	=11-	=11-	=11-	=11-	=11-
2G\	.	1E	.	2B/	.
!	!	!	!	!LO:SIC:v:s=2c#/:t=?	!
2E/	.	.	.	2c/	.
*	*	*Xlig	*	*	*
1D	-ta-	1F	.	1d	.
=12-	=12-	=12-	=12-	=12-	=12-
1C	-tis	1G	tis	1e	-tis
1D	.	1d	lau-	1f	lau-
=13-	=13-	=13-	=13-	=13-	=13-
*	*	*lig	*	*	*
1F	lau-	1c	-da	1f	-da-
*lig	*	*	*	*	*
1G	-da-	1B	.	2d\	.
.	.	.	.	1g\	.
*	*	*Xlig	*	*	*
=14-	=14-	=14-	=14-	=14-	=14-
*	*	*lig	*	*	*
1D	.	1A	.	.	.
!	!	!	!	!LO:SIC:v:s=2f#\:t=?	!
.	.	.	.	2f\	.
*Xlig	*	*	*	*	*
*	*	*custos:B	*	*	*
1d	.	1G	.	1g	-mus
*	*	*Xlig	*	*	*
=15-	=15-	=15-	=15-	=15-	=15-
*	*	*lig	*	*	*
!	!	!LO:LB:g=original	!	!	!
2G\	.	1B	mus	1g	te
2A\	.	.	.	.	.
1A	-mus	1c	.	1a	.
*	*	*Xlig	*	*	*
=16-	=16-	=16-	=16-	=16-	=16-
1G	te	1d	te	2d/	be-
*	*	*	*	*custos:f	*
.	.	.	.	2g\	.
*custos:F	*	*	*	*	*
!	!	!	!	!LO:LB:g=original	!
1D	be-	1d	be-	2f\	-ne-
.	.	.	.	2d\	.
=17-	=17-	=17-	=17-	=17-	=17-
*	*	*lig	*	*	*
!LO:LB:g=original	!	!	!	!	!
2F\	-ne-	1d	-ne-	2a\	.
2G\	.	.	.	2g\	.
2A\	.	1c	.	2e\	-di-
2F\	.	.	.	2f\	.
*	*	*Xlig	*	*	*
=18-	=18-	=18-	=18-	=18-	=18-
*	*	*lig	*	*lig	*
1G	.	1B	.	1d	-ci-
1C	.	1c	.	1e	.
*	*	*Xlig	*	*Xlig	*
=19-	=19-	=19-	=19-	=19-	=19-
1D	.	1A	-di-	1d	-mus
1G	-di-	1G	-ci-	2B/	.
.	.	.	.	1G/	.
=20-	=20-	=20-	=20-	=20-	=20-
*	*	*lig	*	*	*
2G\	-ci	1B	mus	.	.
2B\	.	.	.	1g	te
1A	mus	1c	.	.	.
!	!	!	!	!LO:SIC:v:s=2f#\:t=?	!
.	.	.	.	2f\	.
*	*	*Xlig	*	*	*
=21-	=21-	=21-	=21-	=21-	=21-
1G	te	1d,<	te	1g	a-
!	!	!	!	!LO:SIC:v:s=2f#\:t=?	!
2D/	a-	1d	a-	2f\	-do-
2G\	-do-	.	.	2g\	.
=22-	=22-	=22-	=22-	=22-	=22-
*	*	*lig	*	*	*
!LO:SIC:v:s=2F#/:t=?	!	!	!	!	!
2F/	.	1d	-do-	2d\	.
2G\	-ra-	.	.	1g	.
*	*	*custos:B	*	*	*
1A	.	1c	.	.	.
!	!	!	!	!LO:SIC:v:s=2f#\t=?	!
.	.	.	.	2f\	.
*	*	*Xlig	*	*	*
=23-	=23-	=23-	=23-	=23-	=23-
*custos:C	*	*	*	*	*
*	*	*lig	*	*	*
!	!	!LO:LB:g=original	!	!	!
1G	.	1B	.	1g	.
!LO:LB:g=original	!	!	!	!	!
2C/	.	1c	.	1e	.
1c\	-mus	.	.	.	.
*	*	*Xlig	*	*	*
=24-	=24-	=24-	=24-	=24-	=24-
*	*	*lig	*	*	*
.	.	1A	-ra-	2e\	.
*	*	*	*	*custos:g	*
2F\	te	.	.	2f\	.
!	!	!	!	!LO:PB:g=original	!
1B	.	1G	.	2g\	.
.	.	.	.	2e\	.
*	*	*Xlig	*	*	*
=25-	=25-	=25-	=25-	=25-	=25-
2c\	.	1F	.	1f	mus-
1A	.	.	.	.	.
*	*	*lig	*	*	*
.	.	1A	-mus	2e\	.
2F\	.	.	.	2f\	.
=26-	=26-	=26-	=26-	=26-	=26-
2G\	.	1G	.	1d	-te
1G	glo-	.	.	.	.
*	*	*Xlig	*	*	*
.	.	1G	te	2d\	.
2E/	.	.	.	2e\	.
=27-	=27-	=27-	=27-	=27-	=27-
2F\	-ri-	1d	glo-	2d\	glo-
2G\	-fi-	.	.	2B/	-ri-
2C/	.	1e	-ri-	1c	-fi-
1c\	-ca-	.	.	.	.
=28-	=28-	=28-	=28-	=28-	=28-
*	*	*lig	*	*	*
.	.	1d	-fi-	1G	-ca-
2B\	.	.	.	.	.
2c\	.	1c	.	1c	.
2C/	.	.	.	.	.
*	*	*Xlig	*	*	*
=29-	=29-	=29-	=29-	=29-	=29-
*lig	*	*lig	*	*	*
1G	-mus	1B	.	2d\	.
.	.	.	.	1g	.
*custos:E	*	*	*	*	*
1D	.	1A	.	.	.
!	!	!	!	!LO:SIC:v:s=2f#\:t=?	!
.	.	.	.	2f\	.
*Xlig	*	*Xlig	*	*	*
=30-	=30-	=30-	=30-	=30-	=30-
!LO:PB:g=original	!	!	!	!	!
2E/	.	1G	.	2g\	.
2C/	.	.	.	2e\	.
*	*	*custos:c	*	*	*
1G	.	1B	-ca-	2d\	.
.	.	.	.	1g\	.
=31-	=31-	=31-	=31-	=31-	=31-
!	!	!LO:LB:g=original	!	!	!
1E	.	1c	-mus	.	.
.	.	.	.	2e\	-mus
!	!	!	!	!LO:SIC:v:s=1f#:t=?	!
!	!	!	!	!LO:LB:g=original	!
1D	te	1d	te	1f	te
=32-	=32-	=32-	=32-	=32-	=32-
1G	Gra	1G	Gra-	2d\	Gra-
.	.	.	.	1g	-ti-
1D	ti-	1A	-ti-	.	.
!	!	!	!	!LO:SIC:v:s=2f#\:t=?	!
.	.	.	.	2f\	-as
=33-	=33-	=33-	=33-	=33-	=33-
1G	-as	1B	-as	1g	a-
*	*	*lig	*	*	*
1C	a-	1c	a-	2g\	.
.	.	.	.	2e\	.
=34-	=34-	=34-	=34-	=34-	=34-
1G	-gi-	1B	.	1d	-gi-
*	*	*Xlig	*	*	*
1D	-mus	1A	-gi-	1d	-mus
=35-	=35-	=35-	=35-	=35-	=35-
2E/	.	1G	-nus	1B	ti-
2G\	.	.	.	.	.
*	*	*lig	*	*	*
2F/	.	1c	ti-	2A/	.
*custos:G	*	*	*	*	*
2A\	.	.	.	2c/	.
=36-	=36-	=36-	=36-	=36-	=36-
!LO:LB:g=original	!	!	!	!	!
1G	ti-	1d	.	1B	-bi
*	*	*Xlig	*	*	*
2D/	-bi	1d	-bi	2A/	pro-
1G\	pro-	.	.	1B/	-pt(er)
=37-	=37-	=37-	=37-	=37-	=37-
.	.	1d	pro-	.	.
2F/	.	.	.	2A/	.
*	*	*lig	*	*	*
2E/	-pt(er)	1e	-pter	2B/	.
2C/	.	.	.	2c/	.
=38-	=38-	=38-	=38-	=38-	=38-
*	*	*custos:g	*	*	*
1D	ma	1f	.	1A	.
*	*	*Xlig	*	*	*
*	*	*	*	*custos:D	*
!	!	!LO:PB:g=original	!	!	!
2C/	.	1g	ma-	1c	ma-
1c\	gna(m)	.	.	.	.
=39-	=39-	=39-	=39-	=39-	=39-
*	*	*lig	*	*	*
!	!	!	!	!LO:LB:g=original	!
.	.	1f	-gnam	1d	-gna(m)
2B\	.	.	.	.	.
1c	glo-	1e	.	2e\	.
.	.	.	.	1g\	.
*	*	*Xlig	*	*	*
=40-	=40-	=40-	=40-	=40-	=40-
1G	-ri-	1d	.	.	.
.	.	.	.	2g\	.
*	*	*lig	*	*	*
1C	-a(m)	1e	glo-	2e\	.
.	.	.	.	1c\	.
=41-	=41-	=41-	=41-	=41-	=41-
1G	.	1d	.	.	.
.	.	.	.	2B/	glo-
*	*	*Xlig	*	*	*
*	*	*lig	*	*	*
2A\	.	1c	-ri-	2c/	-ti-
2F/	.	.	.	2A/	.
=42-	=42-	=42-	=42-	=42-	=42-
1G	.	1B	.	2G/	-am
.	.	.	.	2g\	tu-
*	*	*Xlig	*	*	*
*	*	*lig	*	*	*
2D/	.	1A	-am	2f\	.
*custos:E	*	*	*	*	*
2F/	tu-	.	.	2a\	.
=43-	=43-	=43-	=43-	=43-	=43-
!LO:LB:g=original	!	!	!	!	!
2E/	.	1B	.	2g\	.
2D/	.	.	.	2f\	.
*	*	*Xlig	*	*	*
*	*	*lig	*	*	*
1C	.	1c	tu-	1e	.
=44-	=44-	=44-	=44-	=44-	=44-
*lig	*	*	*	*	*
1G	.	1B	.	2d\	.
.	.	.	.	1g	.
*	*	*Xlig	*	*	*
*	*	*lig	*	*	*
1D	.	1A	.	.	.
!	!	!	!	!LO:SIC:v:s=2f#\	!
.	.	.	.	2f\	-am
*Xlig	*	*	*	*	*
=45-	=45-	=45-	=45-	=45-	=45-
1d	.	1G	.	1g	.
*	*	*Xlig	*	*	*
*	*	*custos:d	*	*custos:f	*
1d	am	1G	-am	1g	.
=46-	=46-	=46-	=46-	=46-	=46-
!	!	!LO:LB:g=original	!	!LO:LB:g=original	!
1D	Do-	1d	Do-	1f	Do-
1A	-mi-	1c	-mi-	2e\	-mi-
.	.	.	.	2c/	.
=47-	=47-	=47-	=47-	=47-	=47-
2G\	.	1B	ne	1d	-ne
1G	-ne	.	.	.	.
*	*	*lig	*	*	*
.	.	1c	.	1a	De-
2F/	.	.	.	.	.
=48-	=48-	=48-	=48-	=48-	=48-
*lig	*	*	*	*	*
1G	De-	1B	.	2d/	.
.	.	.	.	1g	.
*	*	*Xlig	*	*	*
*	*	*lig	*	*	*
1D	.	1A	.	.	.
!	!	!	!	!LO:SIC:v:s=2f#\	!
.	.	.	.	2f\	.
*Xlig	*	*	*	*	*
=49-	=49-	=49-	=49-	=49-	=49-
1d	-us	1G	.	1g	-us
*	*	*Xlig	*	*	*
*custos:D	*	*	*	*	*
*	*	*lig	*	*	*
1A	rex	1c	De-	1e	.
=50-	=50-	=50-	=50-	=50-	=50-
!LO:LB:g=original	!	!	!	!LO:SIC:v:s=2f#\	!
2D/	.	1d	.	2f\	.
2G\	.	.	.	2g\	.
*	*	*Xlig	*	*	*
!LO:SIC:v:s=2F#/	!	!	!	!	!
2F/	.	1d	-us	2a\	.
1G\	cae-	.	.	2g\	.
=51-	=51-	=51-	=51-	=51-	=51-
*	*	*lig	*	*	*
.	.	1d	rex	2G/	rex
2F/	.	.	.	2A/	.
2E/	.	1g	.	2G/	.
2C/	.	.	.	1c\	cae-
*	*	*Xlig	*	*	*
=52-	=52-	=52-	=52-	=52-	=52-
1D	.	1f	cae-	.	.
.	.	.	.	2B/	.
*	*	*lig	*	*	*
*	*	*	*	*custos:G	*
2C/	.	1e	-le-	1c	-le-
1c\	.	.	.	.	.
=53-	=53-	=53-	=53-	=53-	=53-
!	!	!	!	!LO:LB:g=original	!
.	.	1d	.	2G/	.
2B\	le-	.	.	2g\	.
*	*	*Xlig	*	*	*
*	*	*lig	*	*	*
1c	.	1c	.	2e\	.
.	.	.	.	1c\	.
=54-	=54-	=54-	=54-	=54-	=54-
*	*	*custos:f	*	*	*
2A\	.	1e	.	.	.
2G\	.	.	.	2g\	.
*	*	*Xlig	*	*	*
*	*	*lig	*	*	*
!	!	!LO:LB:g=original	!	!	!
1F	.	1f	.	1a	.
=55-	=55-	=55-	=55-	=55-	=55-
1G	.	1d	.	1g	.
*	*	*Xlig	*	*	*
1A	.	1c	.	1e	.
=56-	=56-	=56-	=56-	=56-	=56-
*custos:E	*	*	*	*	*
!	!	!LO:TX:a:t=x	!	!	!
0D	-ſtis	0d	-ſtis	0f	ſtis
=57-	=57-	=57-	=57-	=57-	=57-
*lig	*	*lig	*	*	*
!LO:LB:g=original	!	!	!	!	!
1E	De-	1G	De-	2e\	De-
.	.	.	.	2g\	.
1D	.	1A	.	1f	.
*Xlig	*	*Xlig	*	*	*
=58-	=58-	=58-	=58-	=58-	=58-
*	*	*lig	*	*	*
1C	-us	1c	us	1e	.
1G	.	1B	.	1d	-us
*	*	*Xlig	*	*	*
=59-	=59-	=59-	=59-	=59-	=59-
2C/	.	1c	.	2e\	Pa-
2E/	.	.	.	2c/	.
*	*	*lig	*	*	*
1D	pa-	1A	Pa	1d	-ter
=60-	=60-	=60-	=60-	=60-	=60-
2E/	.	1G	.	2B/	o-
1C	.	.	.	2c/	-mni-
*	*	*	*	*custos:A	*
*	*	*Xlig	*	*	*
*	*	*lig	*	*	*
!	!	!	!	!LO:PB:g=original	!
.	.	1c	ter	2A/	.
1F\	.	.	.	1a\	.
=61-	=61-	=61-	=61-	=61-	=61-
.	.	1d	.	.	.
2D/	.	.	.	2f\	.
*	*	*Xlig	*	*	*
*	*	*lig	*	*	*
2C/	.	1e	om-	2e\	.
!	!	!	!	!LO:TX:t=x:rj	!
1c\	.	.	.	1a\	-po-
=62-	=62-	=62-	=62-	=62-	=62-
*	*	*custos:c	*	*	*
.	.	1d	.	.	.
2B\	ter	.	.	1g	-tens
*	*	*Xlig	*	*	*
*	*	*lig	*	*	*
!	!	!LO:LB:g=original	!	!	!
1A	o-	1c	-ni	.	.
!	!	!	!	!LO:SIC:v:s=2f#\:t=?	!
.	.	.	.	2f\	.
=63-	=63-	=63-	=63-	=63-	=63-
1G	.	1B	.	1g	De-
*	*	*Xlig	*	*	*
*custos:D	*	*	*	*	*
*	*	*lig	*	*	*
1A	-mni	1c	.	1e	-us
=64-	=64-	=64-	=64-	=64-	=64-
!LO:LB:g=original	!	!	!	!	!
2D/	.	1d	.	2f\	Pa-
1G	po-	.	.	2d\	-ter
*	*	*Xlig	*	*	*
*	*	*lig	*	*	*ij
.	.	1A	po-	2e\	o-
2F/	.	.	.	2f\	-mni
=65-	=65-	=65-	=65-	=65-	=65-
1G	.	1G	.	1d	po-
*	*	*Xlig	*	*	*
1C	-tens	1G	tens	1e	-tens
*	*	*	*	*	*Xij
=66-	=66-	=66-	=66-	=66-	=66-
1F	Do-	1A	Do-	1f	Do-
1E	-mi-	1G	-mi-	2g\	-mi-
.	.	.	.	2e\	.
=67-	=67-	=67-	=67-	=67-	=67-
*	*	*	*	*custos:e	*
1D	-ne	1F	-ne	1f	-ne
*	*	*lig	*	*	*
!	!	!	!	!LO:LB:g=original	!
1C	fi-	1G	fi-	1e	.
=68-	=68-	=68-	=68-	=68-	=68-
1c	-li	1A	.	1e	.
*	*	*Xlig	*	*	*
2F/	.	1A	-li	2f\	.
1A\	.	.	.	1e\	fi-
=69-	=69-	=69-	=69-	=69-	=69-
.	.	1c	v-	.	.
2E/	.	.	.	1c	-li
*	*	*custos:e	*	*	*
2F/	v-	1d	-ni-	.	.
2G\	-ni-	.	.	2B/	.
=70-	=70-	=70-	=70-	=70-	=70-
*	*	*lig	*	*	*
!	!	!LO:LB:g=original	!	!	!
2C/	.	1e	-ge-	2c\	.
*custos:A	*	*	*	*	*
2c\	-ge-	.	.	2g\	V-
!LO:LB:g=original	!	!	!	!	!
2A\	.	1f	.	2a\	-ni-
2F/	.	.	.	1a\	-ge-
*	*	*Xlig	*	*	*
=71-	=71-	=71-	=71-	=71-	=71-
*	*	*lig	*	*	*
1G	.	1d	.	.	.
.	.	.	.	1g	-ni-
1A	-ni-	1c	.	.	.
!	!	!	!	!LO:SIC:v:s=2f#\:t=?	!
.	.	.	.	2f\	.
*	*	*Xlig	*	*	*
=72-	=72-	=72-	=72-	=72-	=72-
1G	-te	1d	-ni	1g	-te
2F/	.	1d,<	te	2a\	Je-
2G\	Je-	.	.	2g\	.
=73-	=73-	=73-	=73-	=73-	=73-
2A\	.	1c	Je-	2e\	.
1F	.	.	.	2f\	.
.	.	1f	-ſu	2c/	.
2D/	ſu	.	.	1d\	.
=74-	=74-	=74-	=74-	=74-	=74-
*	*	*lig	*	*	*
1A	chri-	1e	Chri-	.	.
*	*	*	*	*custos:d	*
.	.	.	.	2c/	.
!	!	!	!	!LO:LB:g=original	!
2D/	.	1f	.	2d\	ſu
2d\	-ſte	.	.	1a\	Chri-
*	*	*Xlig	*	*	*
=75-	=75-	=75-	=75-	=75-	=75-
*	*	*lig	*	*	*
2B\	.	1d	(st)e	.	.
2G\	.	.	.	1g	.
1A	.	1c	.	.	.
!	!	!	!	!LO:SIC:v:s=2f#\:t=?	!
.	.	.	.	2f\	.
*	*	*Xlig	*	*	*
=76-	=76-	=76-	=76-	=76-	=76-
*	*	*custos:G	*	*	*
1G	.	1d	.	1g	-ſte
!	!	!LO:PB:g=original	!	!	!
2B\	.	1G	Do-	1d	Do-
1G\	Do-	.	.	.	.
=77-	=77-	=77-	=77-	=77-	=77-
*	*	*lig	*	*	*
.	.	1c	.	1f	-mi-
*custos:G	*	*	*	*	*
2F/	-mi-	.	.	.	.
!LO:LB:g=original	!	!	!	!	!
1G	-[ne]	1B	.	2d\	-ne
*	*	*	*	*	*ij
.	.	.	.	1g\	Do-
*	*	*Xlig	*	*	*
=78-	=78-	=78-	=78-	=78-	=78-
*	*	*lig	*	*	*
1A	.	1c	-mi	.	.
.	.	.	.	2e\	.
2F/	.	1d	.	2f\	.
1G\	.	.	.	1d\	-mi-
*	*	*Xlig	*	*	*
=79-	=79-	=79-	=79-	=79-	=79-
.	.	1d	ne	.	.
1D	.	.	.	2f\	.
.	.	1e	De-	1g	-ne
2C/	De-	.	.	.	.
*	*	*	*	*	*Xij
=80-	=80-	=80-	=80-	=80-	=80-
1D	.	1d	-us	1f	De-
*	*	*lig	*	*lig	*
1F	us	1c	a-	1f	.
=81-	=81-	=81-	=81-	=81-	=81-
*lig	*	*	*	*	*
1G	a-	1B	.	1d	.
*	*	*Xlig	*	*Xlig	*
1C	.	1c	.	2e\	-us
.	.	.	.	1g\	a-
*Xlig	*	*	*	*	*
=82-	=82-	=82-	=82-	=82-	=82-
*	*	*lig	*	*	*
1D	-gnus	1A	-gnus	.	.
*	*	*	*	*custos:g	*
!	!	!	!	!LO:SIC:v:s=2f#\:t=?	!
.	.	.	.	2f\	.
!	!	!	!	!LO:LB:g=original	!
1d	De-	1G	.	1g	.
*	*	*Xlig	*	*	*
=83-	=83-	=83-	=83-	=83-	=83-
*	*	*lig	*	*	*
1c	.	1c	De-	1e	.
*	*	*custos:d	*	*	*
2B\	-i	1d	.	1d	gnus
1G\	fi-	.	.	.	.
*	*	*Xlig	*	*	*
=84-	=84-	=84-	=84-	=84-	=84-
!	!	!LO:LB:g=original	!	!	!
.	.	1d	-i	2B/	de-
2F/	-li-	.	.	2A/	.
2E/	.	1e	fi-	2G/	i
2C/	-us	.	.	1c\	fi-
=85-	=85-	=85-	=85-	=85-	=85-
*custos:F	*	*	*	*	*
1D	.	1d	-li-	.	.
.	.	.	.	2B/	.
*	*	*lig	*	*	*
!LO:LB:g=original	!	!	!	!	!
1F	Pa-	1c	-us	2c/	-li-
.	.	.	.	2A/	.
=86-	=86-	=86-	=86-	=86-	=86-
*lig	*	*	*	*	*
1G	.	1B	.	2G/	-us
.	.	.	.	1g	pa-
*	*	*Xlig	*	*	*
1C	.	1c	.	.	.
.	.	.	.	2e\	.
*Xlig	*	*	*	*	*
=87-	=87-	=87-	=87-	=87-	=87-
*	*	*lig	*	*lig	*
1D	.	1A	pa-	1f	.
1G	.	1G	.	1d	.
*	*	*Xlig	*	*Xlig	*
=88-	=88-	=88-	=88-	=88-	=88-
*	*	*lig	*	*	*
1E	.	1c	-tris	1e	.
1D	-tris	1d	.	1f	tris
*	*	*Xlig	*	*	*
=89-	=89-	=89-	=89-	=89-	=89-
1D	Qui	1f	Qui	1a	Qui
*	*	*lig	*	*	*
*	*	*	*	*custos:f	*
1A	tol-	1e	tol-	1a	tol-
=90-	=90-	=90-	=90-	=90-	=90-
*	*	*custos:d	*	*	*
!	!	!	!	!LO:LB:g=original	!
2D/	-lis	1f	.	2f\	.
1d	.	.	.	1a	.
*	*	*Xlig	*	*	*
*	*	*lig	*	*	*
!	!	!LO:LB:g=original	!	!	!
.	.	1d	.	.	.
2B\	.	.	.	1g\	.
=91-	=91-	=91-	=91-	=91-	=91-
1A	.	1c	.	.	.
!	!	!	!	!LO:SIC:v:s=2f#\:t=?	!
.	.	.	.	2f\	-lis
*	*	*Xlig	*	*	*
1G	pec-	1d	-lis	1g	p(e)c-
=92-	=92-	=92-	=92-	=92-	=92-
1B-X	-ca-	1d	pec-	2f\	.
.	.	.	.	2g\	.
2F/	-ta	1c	-ca-	2a\	-(ca)-
*custos:G	*	*	*	*	*
2A\	.	.	.	2f\	-ta
=93-	=93-	=93-	=93-	=93-	=93-
!LO:LB:g=original	!	!	!	!	!
1G	.	1d	-ta	1g	mun-
*	*	*lig	*	*	*
1E	.	1e	mun-	1G	.
=94-	=94-	=94-	=94-	=94-	=94-
1D	.	1f	.	1d	.
*	*	*Xlig	*	*	*
*	*	*lig	*	*	*
1G	mun-	1d	.	1B	.
=95-	=95-	=95-	=95-	=95-	=95-
2C/	.	1c	.	2c/	.
1c	-di	.	.	2A/	.
*	*	*Xlig	*	*	*
.	.	1d	-di	1G	-di
2Bny\	.	.	.	.	.
=96-	=96-	=96-	=96-	=96-	=96-
2c\	.	1e	mi-	2c/	mi-
2C/	.	.	.	1c	-ſe-
1G	mi-	1d	ſe-	.	.
.	.	.	.	2B/	-re-
=97-	=97-	=97-	=97-	=97-	=97-
*	*	*lig	*	*	*
2A\	.	1c	-re-	2A/	-re
*	*	*	*	*custos:g	*
2F/	ſe-	.	.	2a\	.
*lig	*	*	*	*	*
*	*	*custos:c	*	*	*
!	!	!	!	!LO:PB:g=original	!
1G	-re-	1B	.	2g\	.
.	.	.	.	1g\	.
*	*	*Xlig	*	*	*
=98-	=98-	=98-	=98-	=98-	=98-
!	!	!LO:LB:g=original	!	!	!
1E	.	1c	.	.	.
.	.	.	.	2e\	.
*Xlig	*	*lig	*	*	*
!	!	!	!	!LO:SIC:v:s=1f#:t=?	!
1D	-re	1A	-re	1f	.
=99-	=99-	=99-	=99-	=99-	=99-
1d	no-	1G	.	1g	.
*	*	*Xlig	*	*	*
*	*	*lig	*	*	*
1c	.	1c	no-	2e\	no-
.	.	.	.	2c/	.
=100-	=100-	=100-	=100-	=100-	=100-
2G\	.	1d	.	2B/	.
*custos:A	*	*	*	*	*
2B\	.	.	.	2G/	.
*	*	*Xlig	*	*	*
*	*	*lig	*	*	*
!LO:PB:g=original	!	!	!	!	!
1A	.	1c	-bis	1A	.
=101-	=101-	=101-	=101-	=101-	=101-
1G	-bis	1d	.	1B	-bis
*	*	*Xlig	*	*	*
1G	Qui	1g	Qui	1B	Qui
=102-	=102-	=102-	=102-	=102-	=102-
*	*	*lig	*	*	*
2D/	tol-	1f	tol-	1A	tol-
2F/	.	.	.	.	.
2G/	.	1e	.	2B/	.
2A\	.	.	.	2c/	.
*	*	*Xlig	*	*	*
=103-	=103-	=103-	=103-	=103-	=103-
*	*	*lig	*	*	*
2F/	.	1f	.	2A/	.
1D	.	.	.	2d/	.
.	.	1g	.	2B/	.
2C/	.	.	.	2c/	.
*	*	*	*	*custos:A	*
*	*	*Xlig	*	*	*
=104-	=104-	=104-	=104-	=104-	=104-
*	*	*lig	*	*	*
!	!	!	!	!LO:LB:g=original	!
1D	-lis	1f	.	2A/	-lis
.	.	.	.	1a	pec-
*lig	*	*	*	*	*
1A	.	1e	.	.	.
.	.	.	.	2a\	-ca-
*	*	*Xlig	*	*	*
=105-	=105-	=105-	=105-	=105-	=105-
*	*	*custos:g	*	*	*
1D	.	1d	-lis	1f	.
*Xlig	*	*	*	*	*
!	!	!LO:LB:g=original	!	!	!
2E/	pec-	1g	pec-	1e	-ta
2C/	.	.	.	.	.
=106-	=106-	=106-	=106-	=106-	=106-
1G	-ca-	1g	-ca-	1d	mun-
*	*	*lig	*	*	*
2D/	ta	1f	-ta	2d\	.
2F/	.	.	.	2c/	.
=107-	=107-	=107-	=107-	=107-	=107-
2G/	.	1e	.	2B/	.
2A\	.	.	.	2c/	.
*	*	*Xlig	*	*	*
*custos:D	*	*	*	*	*
*	*	*lig	*	*	*
2F/	.	1f	mun-	2A/	-di
!LO:LB:g=original	!	!	!	!	!
1D/	mun-	.	.	2d\	.
=108-	=108-	=108-	=108-	=108-	=108-
.	.	1g	.	2B/	.
2C/	.	.	.	2c/	.
*	*	*Xlig	*	*	*
1D	.	1f	-di	2A/	.
.	.	.	.	1a\	ſu-
=109-	=109-	=109-	=109-	=109-	=109-
*	*	*lig	*	*	*
1A	.	1e	.	.	.
.	.	.	.	2a\	ſci-
1D	-di	1d	.	1f	.
*	*	*Xlig	*	*	*
=110-	=110-	=110-	=110-	=110-	=110-
*	*	*lig	*	*	*
1G	.	1d	ſu-	1g	.
2C/	ſu-	1c	.	2e\	.
2E/	-ſci-	.	.	2c/	.
*	*	*	*	*custos:d	*
*	*	*Xlig	*	*	*
=111-	=111-	=111-	=111-	=111-	=111-
*	*	*lig	*	*	*
!	!	!	!	!LO:LB:g=original	!
1D	-pe	1B	-ſci-	1d	.
2C/	.	1c	.	1e	.
1c\	de-	.	.	.	.
*	*	*Xlig	*	*	*
=112-	=112-	=112-	=112-	=112-	=112-
*	*	*lig	*	*	*
.	.	1A	-pe	2e\	pe
2A\	-pre-	.	.	2f\	.
*	*	*custos:c	*	*	*
2B\	.	1G	.	1g	de-
1d\	-ca-	.	.	.	.
*	*	*Xlig	*	*	*
=113-	=113-	=113-	=113-	=113-	=113-
!	!	!LO:PB:g=original	!	!	!
.	.	1c	de-	2e\	.
1c	-ti-	.	.	1a	-pre-
.	.	1d	-pre-	.	.
!	!	!	!	!LO:SIC:v:s=2g\:t=?	!
2B\	-o-	.	.	2g\	.
=114-	=114-	=114-	=114-	=114-	=114-
1A	.	1c	-ca-	1a	-ca-
2F/	.	1d	-ti-	2a\	.
2G\	.	.	.	1g\	-tio-
=115-	=115-	=115-	=115-	=115-	=115-
*	*	*lig	*	*	*
1E	.	1e	-o-	.	.
.	.	.	.	2g\	.
*custos:D	*	*	*	*	*
*	*	*	*	*lig	*
2D/	.	1f	.	1f	-nem
!LO:LB:g=original	!	!	!	!	!
1d\	-nem	.	.	.	.
*	*	*Xlig	*	*	*
=116-	=116-	=116-	=116-	=116-	=116-
.	.	1g	.	1e	.
2c\	.	.	.	.	.
*	*	*lig	*	*Xlig	*
2d\	.	1f	-nem	2d\	noſ-
2D/	no-	.	.	1a\	.
=117-	=117-	=117-	=117-	=117-	=117-
*lig	*	*	*	*	*
1A	.	1e	.	.	.
.	.	.	.	2a\	.
*	*	*Xlig	*	*	*
!LO:SIC:v:s=1B-:t=?	!	!	!	!	!
1B	.	1d	noſ-	2f\	.
.	.	.	.	2g\	.
*	*	*	*	*custos:a	*
*Xlig	*	*	*	*	*
=118-	=118-	=118-	=118-	=118-	=118-
1A	.	1c	.	1a	.
1D	-ſtram	1d	-tram	1a	-tram
=119-	=119-	=119-	=119-	=119-	=119-
*	*	*custos:G	*	*	*
1D	qui	1d	Qui	1f	.
!	!	!LO:LB:g=original	!	!	!
1E	ſe-	1G	ſe-	1g	qui
=120-	=120-	=120-	=120-	=120-	=120-
1D	-des	1d	-des	1f	ſe-
1A	ad	1c	ad	1e	-des
=121-	=121-	=121-	=121-	=121-	=121-
2F/	dex-	1f	dex-	2f\	ad
2D/	.	.	.	1a	dex-
2E/	-te-	1e	-te-	.	.
2C/	.	.	.	1g\	-te-
=122-	=122-	=122-	=122-	=122-	=122-
*custos:A	*	*	*	*	*
1G	-ram	1d	-ra(m)	.	.
.	.	.	.	2f\	.
*lig	*	*lig	*	*	*
!LO:LB:g=original	!	!	!	!	!
1A	pa-	1c	pa-	1e	-ram
=123-	=123-	=123-	=123-	=123-	=123-
1G	.	1d	.	1g	Pa-
*Xlig	*	*Xlig	*	*	*
2D/	-tris	1d	-tris	2f\	.
1G\	mi-	.	.	1g\	.
=124-	=124-	=124-	=124-	=124-	=124-
.	.	1d	mi-	.	.
2F/	-ſe-	.	.	2a\	.
*	*	*lig	*	*	*
2E/	.	1e	-ſe-	2g\	-tris
2C/	-re-	.	.	1e\	mi-
=125-	=125-	=125-	=125-	=125-	=125-
1D	.	1f	.	.	.
*	*	*	*	*custos:e	*
.	.	.	.	2d\	-ſe-
*	*	*Xlig	*	*	*
*	*	*custos:f	*	*	*
!	!	!	!	!LO:LB:g=original	!
2C/	-re	1g	-re-	1e	-re-
1c\	no-	.	.	.	.
=126-	=126-	=126-	=126-	=126-	=126-
*	*	*lig	*	*	*
!	!	!LO:LB:g=original	!	!	!
.	.	1f	-re	1d	.
2B\	.	.	.	.	.
1c	.	1e	.	1c	-re
*	*	*Xlig	*	*	*
=127-	=127-	=127-	=127-	=127-	=127-
*	*	*lig	*	*	*
2B\	.	1d	.	2d\	.
2G\	.	.	.	2g\	.
1A	.	1c	.	1e	no-
*	*	*Xlig	*	*	*
=128-	=128-	=128-	=128-	=128-	=128-
1D	.	1d	no-	1f	.
1D	-bis	1d	-bis	1f	-bis
=129-	=129-	=129-	=129-	=129-	=129-
1D	quo-	0d	Quo-	1a	Quo-
*custos:F	*	*	*	*	*
1D	-ni-	.	.	1a	-ni-
=130-	=130-	=130-	=130-	=130-	=130-
!LO:LB:g=original	!	!	!	!	!
1F	-am	1c	-ni-	1a	-am
*lig	*	*lig	*	*	*
1G	tu	1B	-am	1g	.
=131-	=131-	=131-	=131-	=131-	=131-
1C	.	1c	.	2e\	tu
.	.	.	.	1g	ſo-
*Xlig	*	*Xlig	*	*	*
*	*	*lig	*	*	*
1D	ſo-	1A	tu	.	.
!	!	!	!	!LO:SIC:v:s=2f#\:t=?	!
.	.	.	.	2f\	.
=132-	=132-	=132-	=132-	=132-	=132-
1E	.	1G	.	1g	-lus
*	*	*Xlig	*	*	*
*	*	*	*	*custos:d	*
2C/	-lus	1c	ſo-	1e	ſan-
1c\	San-	.	.	.	.
=133-	=133-	=133-	=133-	=133-	=133-
*	*	*custos:e	*	*	*
!	!	!	!	!LO:PB:g=original	!
.	.	1d	-lus	1d	.
2B\	.	.	.	.	.
*	*	*lig	*	*	*
!	!	!LO:LB:g=original	!	!	!
1c	.	1e	San-	2c/	.
.	.	.	.	2g\	.
=134-	=134-	=134-	=134-	=134-	=134-
1F	.	1f	.	2f\	.
.	.	.	.	1a	.
*	*	*Xlig	*	*	*
*	*	*lig	*	*	*
1G	.	1d	.	.	.
.	.	.	.	1g\	.
=135-	=135-	=135-	=135-	=135-	=135-
1A	.	1c	.	.	.
!	!	!	!	!LO:SIC:v:s=2f#\:t=?	!
.	.	.	.	2f\	.
*	*	*Xlig	*	*	*
1G	-ctus	1d	-ctus	1g	-ctus
=136-	=136-	=136-	=136-	=136-	=136-
1E	tu	1g	tu	2e\	.
.	.	.	.	1c	tu
1D	ſo-	1f	.	.	.
.	.	.	.	2B/	ſo-
=137-	=137-	=137-	=137-	=137-	=137-
*	*	*lig	*	*	*
2C/	-lus	1e	ſo-	2c/	-lus
1c	do	.	.	1g	Do-
.	.	1d	.	.	.
*custos:A	*	*	*	*	*
2B\	.	.	.	2g\	.
*	*	*Xlig	*	*	*
=138-	=138-	=138-	=138-	=138-	=138-
!LO:PB:g=original	!	!	!	!	!
2A\	.	1e	-lus	2e\	.
2G\	.	.	.	2g\	.
2F/	.	1c	Do-	2a\	-mi-
2E/	.	.	.	1g\	.
=139-	=139-	=139-	=139-	=139-	=139-
1D	mi-	1d	-mi-	.	.
!	!	!	!	!LO:SIC:v:s=2f#\:t=?	!
.	.	.	.	2f\	.
*	*	*custos:g	*	*custos:g	*
1G	-nus	1d	-nus	1g	-nus
=140-	=140-	=140-	=140-	=140-	=140-
!	!	!LO:LB:g=original	!	!LO:LB:g=original	!
1E	tu	1g	tu	1g	tu
1D	ſo-	1a	ſo-	1f	ſo-
=141-	=141-	=141-	=141-	=141-	=141-
2E/	.	1g	-lus	1e	-lus
2C/	-lus	.	.	.	.
*	*	*lig	*	*	*
1G	.	1d	al-	2d\	.
.	.	.	.	1g\	tu
=142-	=142-	=142-	=142-	=142-	=142-
2C/	.	1e	.	.	.
2c\	.	.	.	2g\	ſo-
*	*	*Xlig	*	*	*
*	*	*lig	*	*	*
1A	al-	1f	-ti-	1a	-lus
=143-	=143-	=143-	=143-	=143-	=143-
2G\	-ti-	1g	.	2d\	al-
2E/	.	.	.	2c\	.
*	*	*Xlig	*	*	*
*	*	*lig	*	*	*
1D	-ſſi-	1f	ſſi-	1d	-ti-
=144-	=144-	=144-	=144-	=144-	=144-
*custos:G	*	*	*	*	*
1C	.	1e	.	2G/	-ſſi-
.	.	.	.	1c	.
*	*	*Xlig	*	*	*
*	*	*lig	*	*	*
!LO:LB:g=original	!	!	!	!	!
1G	-mus	1d	.	.	.
.	.	.	.	2B/	.
=145-	=145-	=145-	=145-	=145-	=145-
1A	.	1c	.	2c/	.
.	.	.	.	2A/	.
*	*	*Xlig	*	*	*
1G	.	1d	-mus	1B	-mus
=146-	=146-	=146-	=146-	=146-	=146-
1A	Je-	1c	Je-	1c	Je-
*	*	*custos:e	*	*	*
2D/	-ſu	1f	ſu	2d\	.
1d\	chr(i-	.	.	2a\	-ſu
=147-	=147-	=147-	=147-	=147-	=147-
*	*	*lig	*	*	*
!	!	!LO:PB:g=original	!	!	!
.	.	1e	Chri-	2g\	.
*	*	*	*	*custos:a	*
2c\	-st)e	.	.	2e\	.
!	!	!	!	!LO:LB:g=original	!
2d\	.	1f	.	1a	Je-
2D/	Je-	.	.	.	.
*	*	*Xlig	*	*	*
=148-	=148-	=148-	=148-	=148-	=148-
*	*	*lig	*	*	*
2F\	.	1d	.	2a\	-ſu
2G\	ſu	.	.	2g\	.
1A	chri-	1c	.	1e	Chri-
*	*	*Xlig	*	*	*
=149-	=149-	=149-	=149-	=149-	=149-
1D	ſte	1d	-ste	1f	-ſte
*custos:C	*	*	*	*	*
1C	Cum	1e	Cum	1g	Cum
=150-	=150-	=150-	=150-	=150-	=150-
*	*	*lig	*	*	*
!LO:LB:g=original	!	!	!	!	!
2C/	ſan-	1c	San-	2g\	ſan-
2F/	.	.	.	2a\	.
!	!	!LO:SIC:v:s=1B-\:t=?	!	!	!
2D/	.	1B	.	2f\	-ctö
2G\	.	.	.	2g\	.
*	*	*Xlig	*	*	*
=151-	=151-	=151-	=151-	=151-	=151-
2C/	.	1c	.	2e\	Sp(i)-
1F	.	.	.	1a	-(ri)-
*	*	*lig	*	*	*
.	.	1A	-cto	.	.
2D/	.	.	.	2f\	.
=152-	=152-	=152-	=152-	=152-	=152-
1G	-cto	1G	.	1g	-(t)u
*	*	*Xlig	*	*	*
*	*	*lig	*	*	*
2E/	Spi-	1c	Spi-	2g\	.
2F/	.	.	.	1f\	Cum
=153-	=153-	=153-	=153-	=153-	=153-
2D/	.	1d	.	.	.
2G\	.	.	.	2d\	ſ(an)
*	*	*Xlig	*	*	*
*	*	*lig	*	*	*
2E/	.	1c	-ri-	2e\	cto
1F\	.	.	.	1a\	ſpi-
=154-	=154-	=154-	=154-	=154-	=154-
*	*	*custos:d	*	*	*
.	.	1d	.	.	.
*	*	*	*	*custos:g	*
2D/	.	.	.	2a\	-ri
*	*	*Xlig	*	*	*
!	!	!LO:LB:g=original	!	!LO:LB:g=original	!
1G	.	1d	-tu	1g	tu
=155-	=155-	=155-	=155-	=155-	=155-
*custos:G	*	*	*	*	*
*	*	*lig	*	*	*
2F/	.	1d	in	2a\	in
!LO:LB:g=original	!	!	!	!	!
2G\	-ri-	.	.	2g\	glo-
2C/	-tu	1g	.	1e	-ri-
2c\	in	.	.	.	.
*	*	*Xlig	*	*	*
=156-	=156-	=156-	=156-	=156-	=156-
2B\	.	1g	glo-	2d\	-ri-
2c\	glo-	.	.	2e\	.
2F/	-ri-	1f	-ri-	1f	-a
2A\	-a	.	.	.	.
=157-	=157-	=157-	=157-	=157-	=157-
2G\	.	1g	-a	2d\	.
1E	De-	.	.	1g	de-
.	.	1c	De-	.	.
2F/	.	.	.	2a\	-i
=158-	=158-	=158-	=158-	=158-	=158-
*	*	*lig	*	*	*
1D	.	1d	-i	1f	P(a)-
2C/	-i	1e	.	1e	-(tr)is
2c\	.	.	.	.	.
*	*	*Xlig	*	*	*
=159-	=159-	=159-	=159-	=159-	=159-
*	*	*lig	*	*	*
2A\	pa-	1f	Pa-	1a	De-
2F\	.	.	.	.	.
1G	.	1d	.	1g	-i
*	*	*Xlig	*	*	*
=160-	=160-	=160-	=160-	=160-	=160-
*	*	*lig	*	*	*
1A	.	1c	.	1e	Pa-
*	*	*custos:e	*	*	*
2D/	.	1d	.	2d\	.
1d\	.	.	.	2f\	.
*	*	*Xlig	*	*	*
=161-	=161-	=161-	=161-	=161-	=161-
*	*	*lig	*	*	*
!	!	!LO:LB:g=original	!	!	!
.	.	1e	.	1e	-tris
*custos:d	*	*	*	*	*
2c\	.	.	.	.	.
*	*	*	*	*custos:a	*
!LO:LB:g=original	!	!	!	!	!
2d\	.	1f	.	2d\	.
!	!	!	!	!LO:LB:g=original	!
2D/	.	.	.	1a\	pa-
*	*	*Xlig	*	*	*
=162-	=162-	=162-	=162-	=162-	=162-
*	*	*lig	*	*	*
2F/	.	1d	.	.	.
2G\	.	.	.	1g	.
1A	.	1c	.	.	.
!	!	!	!	!LO:SIC:v:s=2f#\:t=?	!
.	.	.	.	2f\	.
*	*	*Xlig	*	*	*
=163-	=163-	=163-	=163-	=163-	=163-
1G	-tris	1d	-tris	1g	tris
*	*	*lig	*	*	*
1D	A-	1d	A-	1f	A-
=164-	=164-	=164-	=164-	=164-	=164-
*lig	*	*	*	*lig	*
1D	.	1B	.	1g	.
*	*	*Xlig	*	*	*
*	*	*lig	*	*	*
1C	.	1c	.	1e	.
*Xlig	*	*	*	*Xlig	*
=165-	=165-	=165-	=165-	=165-	=165-
*lig	*	*	*	*	*
1G	.	1B	.	2d\	.
.	.	.	.	1g	.
*	*	*Xlig	*	*	*
*	*	*lig	*	*	*
1D	.	1A	.	.	.
!	!	!	!	!LO:SIC:v:s=2f#\:t=?	!
.	.	.	.	2f\	.
*Xlig	*	*	*	*	*
=166-	=166-	=166-	=166-	=166-	=166-
1d	.	1G	.	1g	.
*	*	*Xlig	*	*	*
*	*	*lig	*	*	*
2d\	.	1F	.	1a	.
1c\	.	.	.	.	.
=167-	=167-	=167-	=167-	=167-	=167-
.	.	1A	.	2a\	.
1A	.	.	.	1a	.
*	*	*Xlig	*	*	*
*	*	*lig	*	*	*
.	.	1c	.	.	.
2c\	.	.	.	1g\	.
=168-	=168-	=168-	=168-	=168-	=168-
*	*	*custos:c	*	*	*
2B\	.	1d	.	.	.
*custos:A	*	*	*	*	*
2G\	.	.	.	2g\	.
*	*	*Xlig	*	*	*
*	*	*lig	*	*	*
!LO:LB:g=original	!	!LO:LB:g=original	!	!	!
1A	.	1c	.	2e\	.
.	.	.	.	1f\	.
=169-	=169-	=169-	=169-	=169-	=169-
2G\	.	1B	.	.	.
*	*	*	*	*custos:d	*
2E/	.	.	.	1e\	.
*	*	*Xlig	*	*	*
*	*	*lig	*	*	*
1F	.	1A	.	.	.
!	!	!	!	!LO:PB:g=original	!
.	.	.	.	2d\	.
=170-	=170-	=170-	=170-	=170-	=170-
1E	.	1B	.	2e\	.
.	.	.	.	1g	.
*	*	*Xlig	*	*	*
*	*	*lig	*	*	*
1C	.	1c	.	.	.
.	.	.	.	2e\	.
*clefF4	*	*	*	*	*
=171-	=171-	=171-	=171-	=171-	=171-
1G	.	1B	.	2d\	.
.	.	.	.	2g\	.
*	*	*Xlig	*	*	*
*	*	*lig	*	*	*
2D/	.	1A	.	2f\	.
2F\	.	.	.	1a\	.
=172-	=172-	=172-	=172-	=172-	=172-
1G	.	1B	.	.	.
.	.	.	.	1g	.
*	*	*Xlig	*	*	*
*	*	*lig	*	*	*
1D	.	1A	-men.	.	.
!	!	!	!	!LO:SIC:v:s=2f#\:t=?	!
.	.	.	.	2f\	.
=173-	=173-	=173-	=173-	=173-	=173-
2GG/	.	000G;;	.	2g\	.
1C	.	.	.	1e	.
*	*	*Xlig	*	*	*
*custos:C	*	*	*	*	*
2BB/	.	.	.	2d\	.
=174-	=174-	=174-	=174-	=174-	=174-
!LO:LB:g=original	!	!	!	!	!
2C/	.	.	.	2c/	.
2D/	.	.	.	2B/	.
2E\	.	.	.	2G/	.
2C/	.	.	.	2c/	.
=175-	=175-	=175-	=175-	=175-	=175-
1G	.	.	.	2B/	.
.	.	.	.	2G/	.
2G\	.	.	.	1d	.
2GG/	-men.	.	.	.	.
=176-	=176-	=176-	=176-	=176-	=176-
0GGl;;	.	.	.	0d;;l	men
==	==	==	==	==	==
*-	*-	*-	*-	*-	*-
!!!system-decoration: [(s1,s2,s3)]
!!!RDF**kern: l = terminal long
!!!RDF**kern: > = above
!!!RDF**kern: < = below
!!!ENC: Marta Opryszak
!!!END: 2022-01-23
!!!ENC: Krzysztof Stępień
!!!END: 2022-02-08
